X: 2036
T: BEAUFORT CASTLE
Q: "Reel."
R: reel
B: Kerr's v.2 p.7 #36
Z: 2016 John Chambers <jc:trillian.mit.edu>
M: C
L: 1/8
K: A
C |\
A,CCE cAAc | BAGF ECCE |\
[1 A,CCE cAAe | cAEC B,3 :|\
[2 A,CCE cAeA | cAEC B,3 :|
|: f |\
ecaf eccb | agaf eccf |\
[1 ecaf eccb | agac B3 :|\
[2 cABc AcBc | AFEC B,3 |]

%%sep 1 1 500
%%sep 1 1 500

